map-icons/icon-citybike-station.svg

<?xml version="1.0" encoding="utf-8"?>
<!-- Generator: Adobe Illustrator 19.2.1, SVG Export Plug-In . SVG Version: 6.00 Build 0)  -->
<!DOCTYPE svg PUBLIC "-//W3C//DTD SVG 1.1//EN" "http://www.w3.org/Graphics/SVG/1.1/DTD/svg11.dtd">
<svg version="1.1" id="Layer_1" xmlns="http://www.w3.org/2000/svg" xmlns:xlink="http://www.w3.org/1999/xlink" x="0px" y="0px"
	 viewBox="0 0 16 16" enable-background="new 0 0 16 16" xml:space="preserve">
<path fill="#FCBC19" d="M0,1.98C0,0.9,0.9,0,1.98,0h12C15.1,0,16,0.9,16,1.98v12C16,15.1,15.1,16,13.98,16h-12
	C0.9,16,0,15.1,0,13.98V1.98z"/>
<g>
	<path fill="#FFFFFF" d="M10.407,7.266l0.556,1.452c0.222,0.588,0.588,1.149,0.862,1.463c0.287,0.34,0.692-0.013,0.444-0.326
		c-0.274-0.34-0.575-0.849-0.784-1.384l-1.009-2.664h0.811l0.444,1.123c0.065,0.157,0.157,0.222,0.3,0.222h1.084
		c0.157,0,0.261-0.078,0.3-0.209l0.549-1.593c0.131-0.366-0.314-0.522-0.457-0.209c-0.431,0.953-1.319,0.823-1.645,0.444
		c-0.131-0.157-0.222-0.235-0.392-0.235h-1.167L10.3,5.339c0.003-0.004,0.006-0.009,0.008-0.013c0.244-0.372,0.313-0.499,0.37-0.781
		c0.057-0.276,0-0.534-0.16-0.728c-0.173-0.209-0.43-0.341-0.743-0.335C9.339,3.489,9.004,3.839,8.967,3.879
		C8.861,3.993,8.867,4.172,8.982,4.278c0.115,0.106,0.286,0.094,0.4-0.015C9.447,4.2,9.618,4.04,9.784,4.037
		c0.141-0.004,0.218,0.057,0.261,0.103c0.066,0.069,0.108,0.2,0.076,0.324c-0.023,0.09-0.05,0.176-0.238,0.476l0,0
		C9.731,5.123,9.655,5.292,9.72,5.475L10.19,6.7c-0.882,0.591-1.537,1.45-1.785,2.559C8.23,9.165,8.035,9.137,7.803,9.162
		L7.661,9.175L6.126,5.173C6.271,5.133,6.437,5.1,6.64,5.087l0.17-0.013c0.17-0.013,0.3-0.117,0.3-0.274
		c0-0.157-0.117-0.287-0.326-0.287H5.948c-0.614,0-0.718-0.01-1.071-0.01c-0.209,0-0.34,0.075-0.34,0.232
		c0,0.327,0.431,0.627,0.836,0.627c0.069,0,0.135-0.009,0.201-0.022l0.54,1.405L5.569,7.555C5.021,7.15,4.368,6.928,3.702,6.928
		c-0.771,0-1.494,0.282-2.013,0.714C1.672,7.657,1.562,7.761,1.546,7.776c-0.151,0.152-0.103,0.422,0.108,0.46
		C1.675,8.24,1.782,8.27,1.801,8.274C2.603,8.467,3.364,8.96,3.97,9.612C3.804,9.723,3.702,9.9,3.702,10.089
		c0,0.34,0.222,0.575,0.601,0.614l3.409,0.366c0.64,0.065,1.162-0.209,1.215-0.993l0.013-0.183
		C9.001,8.883,9.529,7.909,10.407,7.266z M6.362,7.388L7.07,9.232L4.988,9.433L6.362,7.388z"/>
	<path fill="#FFFFFF" d="M4.224,11.944c-1.045,0-1.894-0.836-1.894-1.881c0-0.327,0.091-0.653,0.287-0.967
		C2.461,8.992,2.265,8.901,2.095,8.835c-0.222,0.366-0.34,0.81-0.34,1.228c0,1.358,1.11,2.455,2.468,2.455
		c0.875,0,1.659-0.457,2.09-1.162l-0.692-0.078C5.308,11.695,4.799,11.944,4.224,11.944z"/>
	<path fill="#FFFFFF" d="M12.086,7.608c-0.157,0-0.3,0.013-0.431,0.039l0.209,0.549c0.065-0.013,0.144-0.013,0.222-0.013
		c1.032,0,1.881,0.849,1.881,1.881c0,1.045-0.849,1.881-1.881,1.881c-1.045,0-1.881-0.836-1.881-1.881
		c0-0.431,0.144-0.823,0.379-1.136l-0.235-0.614c-0.444,0.444-0.731,1.071-0.731,1.75c0,1.358,1.11,2.455,2.468,2.455
		c1.358,0,2.455-1.097,2.455-2.455C14.542,8.705,13.444,7.608,12.086,7.608z"/>
</g>
</svg>

<?xml version="1.0" encoding="UTF-8" standalone="no"?>
<!-- Generator: Adobe Illustrator 19.2.1, SVG Export Plug-In . SVG Version: 6.00 Build 0)  -->

<svg
   xmlns:dc="http://purl.org/dc/elements/1.1/"
   xmlns:cc="http://creativecommons.org/ns#"
   xmlns:rdf="http://www.w3.org/1999/02/22-rdf-syntax-ns#"
   xmlns:svg="http://www.w3.org/2000/svg"
   xmlns="http://www.w3.org/2000/svg"
   xmlns:sodipodi="http://sodipodi.sourceforge.net/DTD/sodipodi-0.dtd"
   xmlns:inkscape="http://www.inkscape.org/namespaces/inkscape"
   version="1.1"
   id="Layer_1"
   x="0px"
   y="0px"
   viewBox="0 0 24 24"
   enable-background="new 0 0 16 16"
   xml:space="preserve"
   sodipodi:docname="icon-citybike-station.svg"
   width="24"
   height="24"
   inkscape:version="0.92.2 5c3e80d, 2017-08-06"><metadata
     id="metadata17"><rdf:RDF><cc:Work
         rdf:about=""><dc:format>image/svg+xml</dc:format><dc:type
           rdf:resource="http://purl.org/dc/dcmitype/StillImage" /><dc:title></dc:title></cc:Work></rdf:RDF></metadata><defs
     id="defs15" /><sodipodi:namedview
     pagecolor="#ffffff"
     bordercolor="#666666"
     borderopacity="1"
     objecttolerance="10"
     gridtolerance="10"
     guidetolerance="10"
     inkscape:pageopacity="0"
     inkscape:pageshadow="2"
     inkscape:window-width="1042"
     inkscape:window-height="836"
     id="namedview13"
     showgrid="false"
     inkscape:zoom="14.75"
     inkscape:cx="8"
     inkscape:cy="8"
     inkscape:window-x="0"
     inkscape:window-y="0"
     inkscape:window-maximized="0"
     inkscape:current-layer="Layer_1" /><path
     d="M 0,2.97 C 0,1.35 1.35,0 2.97,0 h 18 C 22.65,0 24,1.35 24,2.97 v 18 C 24,22.65 22.65,24 20.97,24 h -18 C 1.35,24 0,22.65 0,20.97 Z"
     id="path2"
     inkscape:connector-curvature="0"
     style="fill:#fcbc19;stroke-width:1.5" /><g
     id="g10"
     transform="scale(1.5)"><path
       d="m 10.407,7.266 0.556,1.452 c 0.222,0.588 0.588,1.149 0.862,1.463 0.287,0.34 0.692,-0.013 0.444,-0.326 C 11.995,9.515 11.694,9.006 11.485,8.471 L 10.476,5.807 h 0.811 l 0.444,1.123 c 0.065,0.157 0.157,0.222 0.3,0.222 h 1.084 c 0.157,0 0.261,-0.078 0.3,-0.209 L 13.964,5.35 C 14.095,4.984 13.65,4.828 13.507,5.141 13.076,6.094 12.188,5.964 11.862,5.585 11.731,5.428 11.64,5.35 11.47,5.35 H 10.303 L 10.3,5.339 c 0.003,-0.004 0.006,-0.009 0.008,-0.013 0.244,-0.372 0.313,-0.499 0.37,-0.781 0.057,-0.276 0,-0.534 -0.16,-0.728 C 10.345,3.608 10.088,3.476 9.775,3.482 9.339,3.489 9.004,3.839 8.967,3.879 8.861,3.993 8.867,4.172 8.982,4.278 9.097,4.384 9.268,4.372 9.382,4.263 9.447,4.2 9.618,4.04 9.784,4.037 c 0.141,-0.004 0.218,0.057 0.261,0.103 0.066,0.069 0.108,0.2 0.076,0.324 -0.023,0.09 -0.05,0.176 -0.238,0.476 v 0 C 9.731,5.123 9.655,5.292 9.72,5.475 L 10.19,6.7 C 9.308,7.291 8.653,8.15 8.405,9.259 8.23,9.165 8.035,9.137 7.803,9.162 L 7.661,9.175 6.126,5.173 C 6.271,5.133 6.437,5.1 6.64,5.087 L 6.81,5.074 C 6.98,5.061 7.11,4.957 7.11,4.8 7.11,4.643 6.993,4.513 6.784,4.513 H 5.948 c -0.614,0 -0.718,-0.01 -1.071,-0.01 -0.209,0 -0.34,0.075 -0.34,0.232 0,0.327 0.431,0.627 0.836,0.627 0.069,0 0.135,-0.009 0.201,-0.022 l 0.54,1.405 -0.545,0.81 C 5.021,7.15 4.368,6.928 3.702,6.928 2.931,6.928 2.208,7.21 1.689,7.642 1.672,7.657 1.562,7.761 1.546,7.776 1.395,7.928 1.443,8.198 1.654,8.236 1.675,8.24 1.782,8.27 1.801,8.274 2.603,8.467 3.364,8.96 3.97,9.612 3.804,9.723 3.702,9.9 3.702,10.089 c 0,0.34 0.222,0.575 0.601,0.614 l 3.409,0.366 c 0.64,0.065 1.162,-0.209 1.215,-0.993 L 8.94,9.893 C 9.001,8.883 9.529,7.909 10.407,7.266 Z M 6.362,7.388 7.07,9.232 4.988,9.433 Z"
       id="path4"
       inkscape:connector-curvature="0"
       style="fill:#ffffff" /><path
       d="M 4.224,11.944 C 3.179,11.944 2.33,11.108 2.33,10.063 2.33,9.736 2.421,9.41 2.617,9.096 2.461,8.992 2.265,8.901 2.095,8.835 c -0.222,0.366 -0.34,0.81 -0.34,1.228 0,1.358 1.11,2.455 2.468,2.455 0.875,0 1.659,-0.457 2.09,-1.162 L 5.621,11.278 c -0.313,0.417 -0.822,0.666 -1.397,0.666 z"
       id="path6"
       inkscape:connector-curvature="0"
       style="fill:#ffffff" /><path
       d="m 12.086,7.608 c -0.157,0 -0.3,0.013 -0.431,0.039 l 0.209,0.549 c 0.065,-0.013 0.144,-0.013 0.222,-0.013 1.032,0 1.881,0.849 1.881,1.881 0,1.045 -0.849,1.881 -1.881,1.881 -1.045,0 -1.881,-0.836 -1.881,-1.881 0,-0.431 0.144,-0.823 0.379,-1.136 L 10.349,8.314 c -0.444,0.444 -0.731,1.071 -0.731,1.75 0,1.358 1.11,2.455 2.468,2.455 1.358,0 2.455,-1.097 2.455,-2.455 10e-4,-1.359 -1.097,-2.456 -2.455,-2.456 z"
       id="path8"
       inkscape:connector-curvature="0"
       style="fill:#ffffff" /></g></svg>
